assets/images/header-green-bottom.svg

<svg fill="none" height="875" viewBox="0 0 3024 875" width="3024" xmlns="http://www.w3.org/2000/svg"><path d="m855.696 481.686c-198.834-9.308-517.25 22.939-678.844 22.939l-176.85192351.338v-504.96794385l3023.99992351.00002023c0 92.99152362.01 381.12092362.01 505.01092362-252.01.005-378.78 373.265-687.71 369.945-216.59-2.328-607.16-114.024-710.12-134.967-82.38-16.754-252.1-110.92-326.66-155.909-65.09-30.251-244.99-93.081-443.824-102.389z" fill="#687e5e"/></svg>

<svg width="3024" height="875" viewBox="0 0 3024 875" fill="none" xmlns="http://www.w3.org/2000/svg">
    <path d="M855.696 481.686C656.862 472.378 338.446 504.625 176.852 504.625L7.6493e-05 504.963L7.6493e-05 -0.00494385L3024 -0.00492362C3024 92.9866 3024.01 381.116 3024.01 505.006C2772 505.011 2645.23 878.271 2336.3 874.951C2119.71 872.623 1729.14 760.927 1626.18 739.984C1543.8 723.23 1374.08 629.064 1299.52 584.075C1234.43 553.824 1054.53 490.994 855.696 481.686Z" fill="#687E5E"/>
</svg>
